!!!OTL: Der Reiter und sein Liebchen (53d), S. 171
!!!id: T0194
**kern
*clefG2
*k[]
*G:
{4d
=1
4g
4g
8.a
16a
=2
4b
4b}
=3
{8.g
16b
=4
4dd
8dd
8dd
8ee
8ee
=5
4dd}
4r
=6
{8dd
8dd
=7
4ee
8cc
8ee
8ee
8ee
=8
4dd
4b}
=9
{8dd
8ee
=10
4dd
4a
4b
=11
4b
4dd}
=12
{8dd
8dd
=13
4ee
8cc
8ee
8ee
8ee
=14
4dd
4b}
=15
{8dd
8ee
=16
4dd
4a
4b
=17
2g}
==
*-
!!!minrhy: 16
!!!meters: 3/4 ]  ZZ[6
!!!cut: Der Reiter und sein Liebchen (53d), S. 171
!!!reg: Luxemburg
!!!trd: Singendes Volk, Esch-Alzette 1937 posth.
!!!rhy1: X__  X__X__X_.X  X__X__
!!!rhy2: X_.X  X__X_X_X_X_  X__0__
!!!key: T0194  16  G 3/4 ]  ZZ[6
!!!mod: SECHSTONSKALA DUR ?]  AMBITUS[9
!!!kad: 353531
!!!akz: 13_55_65_53_65_51_
!!!fot: 'a__b__c__d__c__dw_
!!!for: 'a__b__bw_c__bw_cw_
!!!fok: '/__/__\__V__\__\__
!! PHRAS[AUFTAKTIG]
!!!fkt: Liebeslieder
!!!bem1: Rodershausen, hhh Th. Lentz, 1930, mitgeteilt:
!!!bem2: hhh Josef Bour (Lehrer)
!! THILL, Mathias:
!! PR[15] 2K[6] 2G[18] 3K[3] 3G[3] 4A[9] 4Ü[0] 5A[0] 6K[3] 6G[0]
!! 7K[3] 7G[0] 8A[0] MEHR[0] SI[45] ABS[33] SR[24] SP[21]
!! ST[8] 2k[9] 2g[12] 3k[3] 3g[3] 4d[0] 4ü[0] 5d[6] 6k[3] 6g[3]
!! 7k[0] 7g[0] 8d[0] mehr[0] si[39] dm[+6] sr[21] sp[18]
!! 1F[39] 2F[50] 3F[6] 4F[0] LF[0] 2P[6] 3P[0] 4P[0] TRI[0] DF[4] AB[36]
!! TF[0] U3K[0] U3[3] U4[0] U4Ü[0] U5[12] U6K[0] U6[3] U7K[0] U7[6]
!! N1[35] N2K[0] N2[15] N3K[0] N3[15] N4[9] N4Ü[0] N5[3] N6K[0] N6[0]
!!!n7k: 0] N7[0] O1[0] O2K[0] O2[0] O3K[0] O3[0] HÖ[0
